brandFactory_export/3.Masa/Otros _3Masa.svg

<?xml version="1.0" encoding="UTF-8"?>
<svg width="24px" height="24px" viewBox="0 0 24 24" version="1.1" xmlns="http://www.w3.org/2000/svg" xmlns:xlink="http://www.w3.org/1999/xlink">
    <title>3.Masa/Otros _3Masa</title>
    <g id="Symbols" stroke="none" stroke-width="1" fill="none" fill-rule="evenodd">
        <g id="3.Masa/Otros-_3Masa" fill="#5CB615" fill-rule="nonzero">
            <path d="M13.8537815,2.00336134 L13.8537815,4.11428571 C13.8537815,4.91428571 14.102521,5.57310924 14.589916,6.05042017 C15.0773109,6.52773109 15.7663866,6.77983193 16.589916,6.77983193 L18.7109244,6.77983193 L13.8537815,2.00336134 Z M20.687395,6.90756303 C20.7243697,6.99495798 20.7445378,7.09243697 20.7445378,7.2 L20.7445378,21.9697479 C20.7445378,22.8638655 19.9882353,23.6235294 19.0806723,23.6235294 L4.6907563,23.6235294 C3.81008403,23.6235294 3.02689076,22.8537815 3.02689076,21.9697479 L3.07731092,18.010084 L3.02689076,8.43697479 L3.02689076,1.65378151 C3.02689076,0.786554622 3.82016807,0 4.6907563,0 L13.4504202,0 C13.7294118,0 13.994958,0.107563025 14.1865546,0.302521008 L20.4386555,6.45042017 C20.5630252,6.57815126 20.6403361,6.73277311 20.687395,6.90756303 L20.687395,6.90756303 Z M12.8016807,15.7613445 C12.8016807,15.1394958 12.3243697,14.6420168 11.702521,14.6420168 C11.0806723,14.6420168 10.6033613,15.1361345 10.6033613,15.7613445 L10.6033613,15.7815126 C10.6033613,16.4033613 11.0806723,16.8907563 11.712605,16.8907563 C12.3243697,16.8907563 12.8016807,16.4033613 12.8016807,15.7613445 Z M16.5294118,15.7613445 C16.5294118,15.1394958 16.0521008,14.6420168 15.4302521,14.6420168 C14.8084034,14.6420168 14.3310924,15.1361345 14.3310924,15.7613445 L14.3310924,15.7815126 C14.3310924,16.4033613 14.8084034,16.8907563 15.4403361,16.8907563 C16.0521008,16.8907563 16.5294118,16.4033613 16.5294118,15.7613445 Z M9.07058824,15.7613445 C9.07058824,15.1394958 8.59327731,14.6420168 7.96134454,14.6420168 C7.34957983,14.6420168 6.87226891,15.1361345 6.87226891,15.7613445 L6.87226891,15.7815126 C6.87226891,16.4033613 7.34957983,16.8907563 7.97142857,16.8907563 C8.59327731,16.8907563 9.07058824,16.4033613 9.07058824,15.7613445 Z" id="Otros-_3Masa"></path>
        </g>
    </g>
</svg>

<svg width="24" height="24" viewBox="0 0 24 24" xmlns="http://www.w3.org/2000/svg"><path d="M13.854 2.003v2.111c0 .8.249 1.46.736 1.936.487.478 1.176.73 2 .73h2.12l-4.856-4.777zm6.833 4.905a.744.744 0 01.058.292v14.77c0 .894-.757 1.654-1.664 1.654H4.69c-.88 0-1.664-.77-1.664-1.654l.05-3.96-.05-9.573V1.654C3.027.787 3.82 0 4.69 0h8.76c.278 0 .544.108.736.303l6.252 6.147c.124.128.201.283.248.458zm-7.885 8.853c0-.622-.478-1.119-1.1-1.119-.621 0-1.099.494-1.099 1.12v.02c0 .621.478 1.109 1.11 1.109.611 0 1.089-.488 1.089-1.13zm3.727 0c0-.622-.477-1.119-1.099-1.119s-1.099.494-1.099 1.12v.02c0 .621.477 1.109 1.11 1.109.611 0 1.088-.488 1.088-1.13zm-7.458 0a1.1 1.1 0 00-1.11-1.119c-.611 0-1.089.494-1.089 1.12v.02c0 .621.478 1.109 1.1 1.109.621 0 1.099-.488 1.099-1.13z" fill="#5CB615" fill-rule="nonzero"/></svg>
